src/assets/img/colab.svg

<?xml version="1.0" encoding="UTF-8"?>
<!DOCTYPE svg PUBLIC "-//W3C//DTD SVG 1.1//EN" "http://www.w3.org/Graphics/SVG/1.1/DTD/svg11.dtd">
<!-- Creator: CorelDRAW 2019 (64-Bit) -->
<svg xmlns="http://www.w3.org/2000/svg" xml:space="preserve" width="7.3109mm" height="4.3532mm" version="1.1" style="shape-rendering:geometricPrecision; text-rendering:geometricPrecision; image-rendering:optimizeQuality; fill-rule:evenodd; clip-rule:evenodd"
viewBox="0 0 46.22 27.52"
 xmlns:xlink="http://www.w3.org/1999/xlink">
 <defs>
  <style type="text/css">
   <![CDATA[
    .fil0 {fill:black;fill-rule:nonzero}
   ]]>
  </style>
 </defs>
 <g id="Layer_x0020_1">
  <metadata id="CorelCorpID_0Corel-Layer"/>
  <path class="fil0" d="M12.72 27.52c-0.98,0 -1.91,-0.08 -2.8,-0.23 -0.89,-0.15 -1.72,-0.38 -2.51,-0.69 -0.79,-0.31 -1.52,-0.68 -2.19,-1.13 -0.67,-0.45 -1.28,-0.97 -1.83,-1.57 -1.1,-1.19 -1.94,-2.63 -2.52,-4.33 -0.29,-0.85 -0.51,-1.76 -0.65,-2.73 -0.14,-0.97 -0.22,-2 -0.22,-3.09 0,-2.19 0.34,-4.14 1.01,-5.83 0.33,-0.84 0.73,-1.63 1.19,-2.35 0.46,-0.72 0.99,-1.38 1.57,-1.97 0.58,-0.59 1.22,-1.11 1.91,-1.56 0.68,-0.45 1.42,-0.83 2.21,-1.13 0.79,-0.3 1.6,-0.53 2.44,-0.68 0.85,-0.15 1.72,-0.23 2.61,-0.23 0.54,0 1.06,0.02 1.55,0.06 0.49,0.04 0.96,0.1 1.41,0.19 0.45,0.08 0.86,0.17 1.23,0.26 0.37,0.09 0.73,0.19 1.07,0.29 0.33,0.1 0.64,0.21 0.9,0.31 0.27,0.11 0.52,0.22 0.75,0.34l1.16 0.63 -1.62 4.52 -0.38 -0.24c-0.28,-0.17 -0.62,-0.34 -1.03,-0.51 -0.41,-0.17 -0.88,-0.34 -1.42,-0.5 -0.53,-0.16 -1.08,-0.28 -1.66,-0.36 -0.57,-0.08 -1.18,-0.12 -1.81,-0.12 -0.54,0 -1.05,0.05 -1.55,0.14 -0.5,0.09 -0.97,0.23 -1.43,0.41 -0.46,0.18 -0.88,0.41 -1.27,0.68 -0.39,0.27 -0.76,0.59 -1.09,0.95 -0.33,0.36 -0.63,0.77 -0.89,1.23 -0.26,0.46 -0.49,0.97 -0.68,1.53 -0.19,0.56 -0.33,1.17 -0.43,1.82 -0.1,0.65 -0.14,1.35 -0.14,2.1 0,1.33 0.15,2.54 0.45,3.64 0.15,0.55 0.34,1.06 0.56,1.52 0.23,0.47 0.49,0.9 0.8,1.29 0.3,0.39 0.65,0.74 1.03,1.04 0.38,0.3 0.81,0.56 1.28,0.78 0.47,0.21 0.98,0.38 1.55,0.49 0.57,0.11 1.19,0.16 1.86,0.16 0.81,0 1.55,-0.04 2.21,-0.12 0.65,-0.08 1.23,-0.2 1.72,-0.36 0.51,-0.16 0.96,-0.32 1.36,-0.48 0.39,-0.15 0.72,-0.3 0.99,-0.44l0.38 -0.2 1.48 4.48 -0.23 0.15c-0.32,0.21 -0.74,0.42 -1.27,0.63 -0.25,0.1 -0.54,0.2 -0.85,0.3 -0.31,0.1 -0.64,0.2 -0.98,0.29 -0.35,0.09 -0.73,0.18 -1.13,0.26 -0.39,0.07 -0.8,0.14 -1.25,0.2 -0.45,0.06 -0.9,0.1 -1.37,0.13 -0.48,0.03 -0.96,0.04 -1.46,0.04zm-2.68 -0.94c0.84,0.14 1.73,0.22 2.68,0.22 0.49,0 0.97,-0.01 1.41,-0.04 0.46,-0.03 0.9,-0.07 1.32,-0.12 0.41,-0.05 0.82,-0.12 1.21,-0.19 0.38,-0.07 0.74,-0.15 1.07,-0.24 0.35,-0.09 0.67,-0.19 0.95,-0.28 0.28,-0.09 0.55,-0.19 0.81,-0.28 0.36,-0.14 0.66,-0.28 0.9,-0.41l-1.04 -3.15c-0.21,0.09 -0.43,0.19 -0.68,0.29 -0.4,0.16 -0.87,0.32 -1.4,0.49 -0.54,0.17 -1.16,0.31 -1.85,0.39 -0.69,0.08 -1.45,0.13 -2.29,0.13 -0.71,0 -1.38,-0.06 -1.99,-0.18 -0.62,-0.12 -1.19,-0.3 -1.71,-0.54 -0.52,-0.24 -0.99,-0.53 -1.42,-0.87 -0.43,-0.34 -0.82,-0.73 -1.16,-1.16 -0.34,-0.43 -0.63,-0.91 -0.88,-1.42 -0.25,-0.51 -0.45,-1.06 -0.61,-1.65 -0.32,-1.17 -0.48,-2.44 -0.48,-3.83 0,-0.78 0.05,-1.52 0.15,-2.21 0.1,-0.69 0.26,-1.34 0.46,-1.94 0.2,-0.6 0.45,-1.15 0.74,-1.65 0.29,-0.51 0.62,-0.96 0.99,-1.36 0.37,-0.4 0.77,-0.75 1.21,-1.06 0.44,-0.3 0.91,-0.56 1.42,-0.76 0.5,-0.2 1.03,-0.35 1.57,-0.45 0.54,-0.1 1.1,-0.15 1.68,-0.15 0.65,0 1.29,0.04 1.9,0.13 0.61,0.09 1.2,0.21 1.77,0.39 0.56,0.17 1.06,0.34 1.49,0.52 0.27,0.11 0.52,0.23 0.75,0.35l1.12 -3.12 -0.61 -0.33c-0.19,-0.1 -0.42,-0.21 -0.68,-0.31 -0.26,-0.1 -0.55,-0.2 -0.85,-0.3 -0.3,-0.09 -0.65,-0.19 -1.02,-0.28 -0.38,-0.09 -0.78,-0.17 -1.19,-0.25 -0.41,-0.08 -0.86,-0.14 -1.34,-0.17 -0.47,-0.04 -0.97,-0.06 -1.49,-0.06 -0.86,0 -1.69,0.07 -2.48,0.21 -0.8,0.14 -1.57,0.36 -2.31,0.65 -0.74,0.29 -1.43,0.64 -2.08,1.06 -0.64,0.42 -1.24,0.91 -1.79,1.46 -0.55,0.56 -1.04,1.18 -1.48,1.85 -0.43,0.68 -0.81,1.42 -1.13,2.23 -0.64,1.61 -0.96,3.47 -0.96,5.57 0,1.06 0.07,2.05 0.21,2.98 0.14,0.93 0.35,1.79 0.62,2.6 0.55,1.61 1.34,2.97 2.37,4.07 0.51,0.55 1.08,1.04 1.7,1.46 0.63,0.42 1.31,0.77 2.05,1.06 0.74,0.29 1.53,0.5 2.37,0.65zm16.15 -12.82c0,0.69 0.04,1.35 0.13,1.96 0.08,0.62 0.21,1.2 0.38,1.76 0.17,0.56 0.37,1.07 0.61,1.53 0.24,0.46 0.51,0.89 0.82,1.27 0.31,0.38 0.65,0.72 1.03,1.01 0.37,0.29 0.79,0.55 1.23,0.76 0.44,0.21 0.92,0.37 1.42,0.47 0.5,0.1 1.04,0.16 1.61,0.16 0.56,0 1.08,-0.05 1.58,-0.16 0.5,-0.11 0.97,-0.26 1.41,-0.47 0.45,-0.21 0.86,-0.46 1.23,-0.76 0.37,-0.29 0.72,-0.63 1.03,-1.01 0.31,-0.38 0.59,-0.81 0.83,-1.27 0.24,-0.46 0.44,-0.98 0.61,-1.53 0.17,-0.56 0.29,-1.15 0.38,-1.76 0.08,-0.62 0.13,-1.27 0.13,-1.96 0,-0.69 -0.04,-1.35 -0.13,-1.96 -0.08,-0.62 -0.21,-1.2 -0.38,-1.76 -0.17,-0.56 -0.37,-1.07 -0.61,-1.53 -0.24,-0.46 -0.51,-0.89 -0.83,-1.27 -0.31,-0.38 -0.65,-0.72 -1.03,-1.01 -0.37,-0.29 -0.79,-0.55 -1.23,-0.76 -0.44,-0.21 -0.91,-0.37 -1.41,-0.47 -0.5,-0.1 -1.03,-0.16 -1.58,-0.16 -0.57,0 -1.11,0.05 -1.61,0.16 -0.5,0.1 -0.98,0.26 -1.42,0.47 -0.45,0.21 -0.86,0.47 -1.23,0.76 -0.37,0.3 -0.72,0.64 -1.03,1.03 -0.31,0.39 -0.59,0.82 -0.83,1.28 -0.24,0.47 -0.44,0.98 -0.61,1.52 -0.17,0.55 -0.29,1.13 -0.38,1.75 -0.08,0.61 -0.13,1.27 -0.13,1.96zm-0.59 2.06c-0.09,-0.66 -0.13,-1.35 -0.13,-2.06 0,-0.71 0.04,-1.4 0.13,-2.06 0.09,-0.65 0.22,-1.27 0.4,-1.86 0.18,-0.59 0.4,-1.14 0.66,-1.64 0.26,-0.51 0.56,-0.98 0.9,-1.4 0.34,-0.43 0.72,-0.81 1.15,-1.14 0.42,-0.33 0.88,-0.62 1.37,-0.85 0.5,-0.23 1.02,-0.41 1.58,-0.53 0.56,-0.12 1.14,-0.17 1.76,-0.17 0.6,0 1.18,0.06 1.73,0.17 0.55,0.12 1.07,0.29 1.57,0.53 0.49,0.23 0.95,0.51 1.37,0.84 0.42,0.33 0.8,0.71 1.15,1.13 0.34,0.42 0.64,0.89 0.91,1.4 0.26,0.51 0.48,1.06 0.66,1.65 0.18,0.59 0.31,1.21 0.4,1.87 0.09,0.66 0.13,1.35 0.13,2.06 0,0.71 -0.04,1.4 -0.13,2.06 -0.09,0.66 -0.22,1.28 -0.4,1.87 -0.18,0.59 -0.4,1.14 -0.66,1.65 -0.26,0.51 -0.57,0.98 -0.91,1.4 -0.34,0.42 -0.73,0.8 -1.15,1.13 -0.42,0.33 -0.88,0.61 -1.37,0.84 -0.49,0.23 -1.02,0.41 -1.57,0.53 -0.55,0.12 -1.13,0.17 -1.73,0.17 -0.61,0 -1.2,-0.06 -1.76,-0.17 -0.56,-0.12 -1.08,-0.29 -1.58,-0.53 -0.49,-0.23 -0.95,-0.51 -1.37,-0.84 -0.42,-0.33 -0.8,-0.7 -1.15,-1.13 -0.34,-0.42 -0.64,-0.89 -0.91,-1.4 -0.26,-0.51 -0.48,-1.06 -0.66,-1.65 -0.18,-0.59 -0.31,-1.22 -0.4,-1.87zm20.61 -2.06c0,1.12 -0.08,2.17 -0.25,3.16 -0.17,0.99 -0.42,1.92 -0.76,2.78 -0.34,0.86 -0.73,1.66 -1.19,2.37 -0.46,0.72 -0.98,1.37 -1.56,1.95 -0.58,0.58 -1.21,1.09 -1.89,1.53 -0.68,0.43 -1.4,0.8 -2.18,1.09 -1.55,0.58 -3.19,0.88 -4.94,0.88 -1.74,0 -3.4,-0.29 -4.96,-0.88 -0.78,-0.29 -1.52,-0.66 -2.2,-1.09 -0.68,-0.44 -1.32,-0.95 -1.89,-1.52 -0.58,-0.58 -1.1,-1.23 -1.56,-1.95 -0.46,-0.72 -0.86,-1.51 -1.2,-2.37 -0.68,-1.72 -1.03,-3.7 -1.03,-5.94 0,-2.24 0.34,-4.22 1.03,-5.93 0.34,-0.85 0.75,-1.64 1.21,-2.36 0.47,-0.72 1,-1.38 1.59,-1.96 0.59,-0.58 1.23,-1.1 1.91,-1.54 0.68,-0.44 1.41,-0.81 2.19,-1.1 0.77,-0.29 1.57,-0.51 2.39,-0.66 0.82,-0.15 1.66,-0.22 2.52,-0.22 1.72,0 3.35,0.29 4.9,0.88 0.77,0.29 1.5,0.66 2.18,1.1 0.68,0.44 1.31,0.96 1.89,1.54 1.16,1.17 2.08,2.61 2.76,4.32 0.34,0.86 0.6,1.78 0.77,2.77 0.17,0.99 0.26,2.04 0.26,3.16zm-0.96 3.04c0.16,-0.95 0.24,-1.96 0.24,-3.04 0,-1.08 -0.08,-2.09 -0.24,-3.03 -0.16,-0.94 -0.41,-1.82 -0.73,-2.62 -0.65,-1.62 -1.52,-2.98 -2.6,-4.08 -0.55,-0.55 -1.14,-1.03 -1.77,-1.44 -0.63,-0.41 -1.32,-0.75 -2.05,-1.03 -1.46,-0.55 -3.01,-0.83 -4.65,-0.83 -0.82,0 -1.61,0.07 -2.39,0.21 -0.78,0.14 -1.53,0.35 -2.26,0.62 -0.73,0.27 -1.41,0.62 -2.06,1.03 -0.64,0.41 -1.24,0.89 -1.8,1.44 -0.56,0.55 -1.06,1.17 -1.49,1.84 -0.44,0.68 -0.82,1.43 -1.15,2.24 -0.65,1.62 -0.97,3.51 -0.97,5.66 0,2.15 0.32,4.05 0.97,5.68 0.32,0.82 0.7,1.57 1.14,2.25 0.43,0.68 0.92,1.29 1.46,1.83 0.54,0.54 1.14,1.02 1.77,1.43 0.64,0.41 1.33,0.75 2.06,1.03 1.47,0.55 3.04,0.83 4.7,0.83 1.66,0 3.22,-0.28 4.68,-0.83 0.73,-0.27 1.41,-0.62 2.05,-1.03 0.63,-0.41 1.22,-0.88 1.77,-1.43 0.54,-0.54 1.03,-1.15 1.46,-1.83 0.43,-0.68 0.81,-1.43 1.13,-2.24 0.32,-0.82 0.56,-1.7 0.72,-2.64z"/>
 </g>
</svg>

<?xml version="1.0" encoding="UTF-8" standalone="no"?>
<!-- Creator: CorelDRAW 2019 (64-Bit) -->

<svg
   xmlns:dc="http://purl.org/dc/elements/1.1/"
   xmlns:cc="http://creativecommons.org/ns#"
   xmlns:rdf="http://www.w3.org/1999/02/22-rdf-syntax-ns#"
   xmlns:svg="http://www.w3.org/2000/svg"
   xmlns="http://www.w3.org/2000/svg"
   xmlns:sodipodi="http://sodipodi.sourceforge.net/DTD/sodipodi-0.dtd"
   xmlns:inkscape="http://www.inkscape.org/namespaces/inkscape"
   xml:space="preserve"
   width="85"
   height="85"
   version="1.1"
   style="clip-rule:evenodd;fill-rule:evenodd;image-rendering:optimizeQuality;shape-rendering:geometricPrecision;text-rendering:geometricPrecision"
   viewBox="0 0 142.18065 142.17434"
   id="svg10"
   sodipodi:docname="colab.svg"
   inkscape:version="0.92.3 (2405546, 2018-03-11)"><metadata
   id="metadata14"><rdf:RDF><cc:Work
       rdf:about=""><dc:format>image/svg+xml</dc:format><dc:type
         rdf:resource="http://purl.org/dc/dcmitype/StillImage" /><dc:title></dc:title></cc:Work></rdf:RDF></metadata><sodipodi:namedview
   pagecolor="#ffffff"
   bordercolor="#666666"
   borderopacity="1"
   objecttolerance="10"
   gridtolerance="10"
   guidetolerance="10"
   inkscape:pageopacity="0"
   inkscape:pageshadow="2"
   inkscape:window-width="1920"
   inkscape:window-height="1015"
   id="namedview12"
   showgrid="false"
   units="px"
   inkscape:zoom="2.5356592"
   inkscape:cx="-61.898421"
   inkscape:cy="-44.24138"
   inkscape:window-x="1920"
   inkscape:window-y="0"
   inkscape:window-maximized="1"
   inkscape:current-layer="svg10" />
 <defs
   id="defs4">
  <style
   type="text/css"
   id="style2">
   <![CDATA[
    .fil0 {fill:black;fill-rule:nonzero}
   ]]>
  </style>
 </defs>
 <g
   id="Layer_x0020_1"
   transform="matrix(2.1718851,0,0,2.1718851,20.90892,41.191172)"
   style="fill:#12d9e1;fill-opacity:1">
  <metadata
   id="CorelCorpID_0Corel-Layer" />
  <path
   class="fil0"
   d="m 12.72,27.52 c -0.98,0 -1.91,-0.08 -2.8,-0.23 C 9.03,27.14 8.2,26.91 7.41,26.6 6.62,26.29 5.89,25.92 5.22,25.47 4.55,25.02 3.94,24.5 3.39,23.9 2.29,22.71 1.45,21.27 0.87,19.57 0.58,18.72 0.36,17.81 0.22,16.84 0.08,15.87 0,14.84 0,13.75 0,11.56 0.34,9.61 1.01,7.92 1.34,7.08 1.74,6.29 2.2,5.57 2.66,4.85 3.19,4.19 3.77,3.6 4.35,3.01 4.99,2.49 5.68,2.04 6.36,1.59 7.1,1.21 7.89,0.91 8.68,0.61 9.49,0.38 10.33,0.23 11.18,0.08 12.05,0 12.94,0 c 0.54,0 1.06,0.02 1.55,0.06 0.49,0.04 0.96,0.1 1.41,0.19 0.45,0.08 0.86,0.17 1.23,0.26 0.37,0.09 0.73,0.19 1.07,0.29 0.33,0.1 0.64,0.21 0.9,0.31 0.27,0.11 0.52,0.22 0.75,0.34 L 21.01,2.08 19.39,6.6 19.01,6.36 C 18.73,6.19 18.39,6.02 17.98,5.85 17.57,5.68 17.1,5.51 16.56,5.35 16.03,5.19 15.48,5.07 14.9,4.99 14.33,4.91 13.72,4.87 13.09,4.87 12.55,4.87 12.04,4.92 11.54,5.01 11.04,5.1 10.57,5.24 10.11,5.42 9.65,5.6 9.23,5.83 8.84,6.1 8.45,6.37 8.08,6.69 7.75,7.05 7.42,7.41 7.12,7.82 6.86,8.28 6.6,8.74 6.37,9.25 6.18,9.81 c -0.19,0.56 -0.33,1.17 -0.43,1.82 -0.1,0.65 -0.14,1.35 -0.14,2.1 0,1.33 0.15,2.54 0.45,3.64 0.15,0.55 0.34,1.06 0.56,1.52 0.23,0.47 0.49,0.9 0.8,1.29 0.3,0.39 0.65,0.74 1.03,1.04 0.38,0.3 0.81,0.56 1.28,0.78 0.47,0.21 0.98,0.38 1.55,0.49 0.57,0.11 1.19,0.16 1.86,0.16 0.81,0 1.55,-0.04 2.21,-0.12 0.65,-0.08 1.23,-0.2 1.72,-0.36 0.51,-0.16 0.96,-0.32 1.36,-0.48 0.39,-0.15 0.72,-0.3 0.99,-0.44 l 0.38,-0.2 1.48,4.48 -0.23,0.15 c -0.32,0.21 -0.74,0.42 -1.27,0.63 -0.25,0.1 -0.54,0.2 -0.85,0.3 -0.31,0.1 -0.64,0.2 -0.98,0.29 -0.35,0.09 -0.73,0.18 -1.13,0.26 -0.39,0.07 -0.8,0.14 -1.25,0.2 -0.45,0.06 -0.9,0.1 -1.37,0.13 -0.48,0.03 -0.96,0.04 -1.46,0.04 z m -2.68,-0.94 c 0.84,0.14 1.73,0.22 2.68,0.22 0.49,0 0.97,-0.01 1.41,-0.04 0.46,-0.03 0.9,-0.07 1.32,-0.12 0.41,-0.05 0.82,-0.12 1.21,-0.19 0.38,-0.07 0.74,-0.15 1.07,-0.24 0.35,-0.09 0.67,-0.19 0.95,-0.28 0.28,-0.09 0.55,-0.19 0.81,-0.28 0.36,-0.14 0.66,-0.28 0.9,-0.41 l -1.04,-3.15 c -0.21,0.09 -0.43,0.19 -0.68,0.29 -0.4,0.16 -0.87,0.32 -1.4,0.49 -0.54,0.17 -1.16,0.31 -1.85,0.39 -0.69,0.08 -1.45,0.13 -2.29,0.13 -0.71,0 -1.38,-0.06 -1.99,-0.18 C 10.52,23.09 9.95,22.91 9.43,22.67 8.91,22.43 8.44,22.14 8.01,21.8 7.58,21.46 7.19,21.07 6.85,20.64 6.51,20.21 6.22,19.73 5.97,19.22 5.72,18.71 5.52,18.16 5.36,17.57 5.04,16.4 4.88,15.13 4.88,13.74 4.88,12.96 4.93,12.22 5.03,11.53 5.13,10.84 5.29,10.19 5.49,9.59 5.69,8.99 5.94,8.44 6.23,7.94 6.52,7.43 6.85,6.98 7.22,6.58 7.59,6.18 7.99,5.83 8.43,5.52 8.87,5.22 9.34,4.96 9.85,4.76 c 0.5,-0.2 1.03,-0.35 1.57,-0.45 0.54,-0.1 1.1,-0.15 1.68,-0.15 0.65,0 1.29,0.04 1.9,0.13 0.61,0.09 1.2,0.21 1.77,0.39 0.56,0.17 1.06,0.34 1.49,0.52 0.27,0.11 0.52,0.23 0.75,0.35 L 20.13,2.43 19.52,2.1 C 19.33,2 19.1,1.89 18.84,1.79 18.58,1.69 18.29,1.59 17.99,1.49 17.69,1.4 17.34,1.3 16.97,1.21 16.59,1.12 16.19,1.04 15.78,0.96 15.37,0.88 14.92,0.82 14.44,0.79 13.97,0.75 13.47,0.73 12.95,0.73 12.09,0.73 11.26,0.8 10.47,0.94 9.67,1.08 8.9,1.3 8.16,1.59 7.42,1.88 6.73,2.23 6.08,2.65 5.44,3.07 4.84,3.56 4.29,4.11 3.74,4.67 3.25,5.29 2.81,5.96 2.38,6.64 2,7.38 1.68,8.19 1.04,9.8 0.72,11.66 0.72,13.76 c 0,1.06 0.07,2.05 0.21,2.98 0.14,0.93 0.35,1.79 0.62,2.6 0.55,1.61 1.34,2.97 2.37,4.07 0.51,0.55 1.08,1.04 1.7,1.46 0.63,0.42 1.31,0.77 2.05,1.06 0.74,0.29 1.53,0.5 2.37,0.65 z M 26.19,13.76 c 0,0.69 0.04,1.35 0.13,1.96 0.08,0.62 0.21,1.2 0.38,1.76 0.17,0.56 0.37,1.07 0.61,1.53 0.24,0.46 0.51,0.89 0.82,1.27 0.31,0.38 0.65,0.72 1.03,1.01 0.37,0.29 0.79,0.55 1.23,0.76 0.44,0.21 0.92,0.37 1.42,0.47 0.5,0.1 1.04,0.16 1.61,0.16 0.56,0 1.08,-0.05 1.58,-0.16 0.5,-0.11 0.97,-0.26 1.41,-0.47 0.45,-0.21 0.86,-0.46 1.23,-0.76 0.37,-0.29 0.72,-0.63 1.03,-1.01 0.31,-0.38 0.59,-0.81 0.83,-1.27 0.24,-0.46 0.44,-0.98 0.61,-1.53 0.17,-0.56 0.29,-1.15 0.38,-1.76 0.08,-0.62 0.13,-1.27 0.13,-1.96 0,-0.69 -0.04,-1.35 -0.13,-1.96 C 40.41,11.18 40.28,10.6 40.11,10.04 39.94,9.48 39.74,8.97 39.5,8.51 39.26,8.05 38.99,7.62 38.67,7.24 38.36,6.86 38.02,6.52 37.64,6.23 37.27,5.94 36.85,5.68 36.41,5.47 35.97,5.26 35.5,5.1 35,5 34.5,4.9 33.97,4.84 33.42,4.84 c -0.57,0 -1.11,0.05 -1.61,0.16 -0.5,0.1 -0.98,0.26 -1.42,0.47 -0.45,0.21 -0.86,0.47 -1.23,0.76 -0.37,0.3 -0.72,0.64 -1.03,1.03 -0.31,0.39 -0.59,0.82 -0.83,1.28 -0.24,0.47 -0.44,0.98 -0.61,1.52 -0.17,0.55 -0.29,1.13 -0.38,1.75 -0.08,0.61 -0.13,1.27 -0.13,1.96 z m -0.59,2.06 c -0.09,-0.66 -0.13,-1.35 -0.13,-2.06 0,-0.71 0.04,-1.4 0.13,-2.06 0.09,-0.65 0.22,-1.27 0.4,-1.86 0.18,-0.59 0.4,-1.14 0.66,-1.64 0.26,-0.51 0.56,-0.98 0.9,-1.4 0.34,-0.43 0.72,-0.81 1.15,-1.14 0.42,-0.33 0.88,-0.62 1.37,-0.85 0.5,-0.23 1.02,-0.41 1.58,-0.53 0.56,-0.12 1.14,-0.17 1.76,-0.17 0.6,0 1.18,0.06 1.73,0.17 0.55,0.12 1.07,0.29 1.57,0.53 0.49,0.23 0.95,0.51 1.37,0.84 0.42,0.33 0.8,0.71 1.15,1.13 0.34,0.42 0.64,0.89 0.91,1.4 0.26,0.51 0.48,1.06 0.66,1.65 0.18,0.59 0.31,1.21 0.4,1.87 0.09,0.66 0.13,1.35 0.13,2.06 0,0.71 -0.04,1.4 -0.13,2.06 -0.09,0.66 -0.22,1.28 -0.4,1.87 -0.18,0.59 -0.4,1.14 -0.66,1.65 -0.26,0.51 -0.57,0.98 -0.91,1.4 -0.34,0.42 -0.73,0.8 -1.15,1.13 -0.42,0.33 -0.88,0.61 -1.37,0.84 -0.49,0.23 -1.02,0.41 -1.57,0.53 -0.55,0.12 -1.13,0.17 -1.73,0.17 -0.61,0 -1.2,-0.06 -1.76,-0.17 -0.56,-0.12 -1.08,-0.29 -1.58,-0.53 -0.49,-0.23 -0.95,-0.51 -1.37,-0.84 -0.42,-0.33 -0.8,-0.7 -1.15,-1.13 -0.34,-0.42 -0.64,-0.89 -0.91,-1.4 -0.26,-0.51 -0.48,-1.06 -0.66,-1.65 -0.18,-0.59 -0.31,-1.22 -0.4,-1.87 z m 20.61,-2.06 c 0,1.12 -0.08,2.17 -0.25,3.16 -0.17,0.99 -0.42,1.92 -0.76,2.78 -0.34,0.86 -0.73,1.66 -1.19,2.37 -0.46,0.72 -0.98,1.37 -1.56,1.95 -0.58,0.58 -1.21,1.09 -1.89,1.53 -0.68,0.43 -1.4,0.8 -2.18,1.09 -1.55,0.58 -3.19,0.88 -4.94,0.88 -1.74,0 -3.4,-0.29 -4.96,-0.88 -0.78,-0.29 -1.52,-0.66 -2.2,-1.09 -0.68,-0.44 -1.32,-0.95 -1.89,-1.52 -0.58,-0.58 -1.1,-1.23 -1.56,-1.95 -0.46,-0.72 -0.86,-1.51 -1.2,-2.37 -0.68,-1.72 -1.03,-3.7 -1.03,-5.94 0,-2.24 0.34,-4.22 1.03,-5.93 0.34,-0.85 0.75,-1.64 1.21,-2.36 0.47,-0.72 1,-1.38 1.59,-1.96 0.59,-0.58 1.23,-1.1 1.91,-1.54 0.68,-0.44 1.41,-0.81 2.19,-1.1 C 29.3,0.59 30.1,0.37 30.92,0.22 31.74,0.07 32.58,0 33.44,0 c 1.72,0 3.35,0.29 4.9,0.88 0.77,0.29 1.5,0.66 2.18,1.1 0.68,0.44 1.31,0.96 1.89,1.54 1.16,1.17 2.08,2.61 2.76,4.32 0.34,0.86 0.6,1.78 0.77,2.77 0.17,0.99 0.26,2.04 0.26,3.16 z m -0.96,3.04 c 0.16,-0.95 0.24,-1.96 0.24,-3.04 0,-1.08 -0.08,-2.09 -0.24,-3.03 C 45.09,9.79 44.84,8.91 44.52,8.11 43.87,6.49 43,5.13 41.92,4.03 41.37,3.48 40.78,3 40.15,2.59 39.52,2.18 38.83,1.84 38.1,1.56 36.64,1.01 35.09,0.73 33.45,0.73 32.63,0.73 31.84,0.8 31.06,0.94 30.28,1.08 29.53,1.29 28.8,1.56 28.07,1.83 27.39,2.18 26.74,2.59 26.1,3 25.5,3.48 24.94,4.03 24.38,4.58 23.88,5.2 23.45,5.87 23.01,6.55 22.63,7.3 22.3,8.11 c -0.65,1.62 -0.97,3.51 -0.97,5.66 0,2.15 0.32,4.05 0.97,5.68 0.32,0.82 0.7,1.57 1.14,2.25 0.43,0.68 0.92,1.29 1.46,1.83 0.54,0.54 1.14,1.02 1.77,1.43 0.64,0.41 1.33,0.75 2.06,1.03 1.47,0.55 3.04,0.83 4.7,0.83 1.66,0 3.22,-0.28 4.68,-0.83 0.73,-0.27 1.41,-0.62 2.05,-1.03 0.63,-0.41 1.22,-0.88 1.77,-1.43 0.54,-0.54 1.03,-1.15 1.46,-1.83 0.43,-0.68 0.81,-1.43 1.13,-2.24 0.32,-0.82 0.56,-1.7 0.72,-2.64 z"
   id="path7"
   inkscape:connector-curvature="0"
   style="fill:#12d9e1;fill-rule:nonzero;fill-opacity:1" />
 </g>
</svg>
